X:280
T: DIES BRUEDER IST DER KOENIG
N: B0332
O: Europa, Mitteleuropa, Deutschland
R: Trink -, Kaiser - Lied
M: 2/4
L: 1/16
K: Eb
EF | G2FGA2GA | B2B4
AB | c2Bcd2cd | e4z2
dc | B2B2B2cB | A2A4
GA | G2AGF2GF | E4z2

@@@ Tune index: 2083
